X:1
T:Standin In The Need of Prayer
T:Steal Away
T:Copyright 1918 by Homer A. Rodeheaver
T:Rodeheaver's Plantation Melodies
T:Rodeheaver's Plantation Melodies
Z:Rodeheaver's Plantation Melodies
%%score [ 1 2 3 4 ]
L:1/8
Q:1/4=80
M:4/4
K:F
V:1 treble nm="Soprano" snm="S."
V:2 treble nm="Alto" snm="A."
V:3 bass nm="Tenor" snm="T."
V:4 bass nm="Bass" snm="B."
V:1
 F3 F F4 | A3 A A4 | c3 c c3 d | G2 A6 | F3 F F4 | d>c A2 c3 F | F2 F2 A3 A | G2 F6 | %8
w: ||||||||
"^May be sung by one voice or in unison." d4 d3 c | d2 c4 A2 | c3 A c3 A | c2 A4 F2 | A c3 c3 A | %13
w: My Lord- *|calls me, He|calls me by the|thun- der; The|trump- et sounds with-|
 d A3 c3 F | F2 F2 A3 A | G2 F6 :| %16
w: in my soul, I|ain't got long to|stay here.|
V:2
 C3 C C4 | F3 F F4 | F3 F F3 F | E2 F6 | C3 C C4 | F>F F2 F3 C | C2 C2 F3 F | E2 C6 | F8- | F8- | %10
w: Steal a- way,|steal a- way,|Steal a- way to|Je- sus!|Steal a- way,|steal a- way home, I|aint got long to|stay here.|||
 F8- | F8- | F8- | F4- F3 C | C2 C2 F3 F | E2 C6 :| %16
w: ||||||
V:3
 A,3 A, A,4 | C3 C C4 | A,3 A, A,3 B, | C2 C6 | A,3 A, A,4 | A,>A, C2 A,3 A, | A,2 A,2 C3 C | %7
 B,2 A,6 | B,4 B,3 A, | B,2 A,4 C2 | A,3 C A,3 C | A,2 C4 A,2 | C A,3- A,3 C | B, C3 A,3 A, | %14
 A,2 A,2 C3 C | B,2 [F,A,]6 :| %16
V:4
 F,3 F, F,4 | F,3 F, F,4 | F,3 F, F,3 F, | C,2 F,6 | F,3 F, F,4 | F,>F, F,2 F,3 F, | %6
 F,2 F,2 C,3 C, | C,2 F,6 | B,,4 B,,3 F, | B,,2 F,4 F,2 | F,8- | F,8- | %12
"_1. My Lord calls me, He calls me by the thunder. The trumpet sounds within my soul, I ain't got long to stay here.\n2. Green trees are benfing, Poor sinner stans a-trembling. The trumpet sounds within my soul, I ain't got long to stay here.\n3. Tombstones are bursting, Poor sinner stans a-trembling. The trumpet sounds within my soul, I ain't got long to stay here.\n4. My Lord calls me, He calls me by the lightning. The trumpet sounds within my soul, I ain't got long to stay here." F,8- | %13
 F,4- F,3 F, | F,2 F,2 C,3 C, | C,2 F,,6 :| %16

